X: 104
T: De la bonne chiere
N: Derived from Mar3003-De_la_bonne_chiere.krn
C: Johannes Martini
%%abc-version 2.0
%%abcx-abcm2ps-target-version 5.9.1 (29 Sep 2008)
%%abc-creator hum2abc beta
%%abcx-conversion-date 2019/02/17 07:19:43
%%abc-edited-by Jesse Rodin
%%abc-edited-by Chris Gage 10-30-2014
%%abcx-initial-encoding-date 2015/02/26/
%%humdrum-veritas 3455311222
%%humdrum-veritas-data 2126823687
%%linebreak <none>
%%barnumbers 0
L: 1/4
M: 2/1
Q: 1/2=120
V: 1 clef=treble
V: 2 clef=treble-8
V: 3 clef=bass
K: C
[V:1] z8 | 
[V:2] z8 | 
[V:3] A,6G,F, | 
[V:1] z8 | 
[V:2] z8 | 
[V:3] E,4E,4 | 
[V:1] z8 | 
[V:2] A6GF | 
[V:3] F,4A,4 | 
[V:1] z8 | 
[V:2] E4E4 | 
[V:3] G,6F,E, | 
[V:1] A6GF | 
[V:2] F4A4 | 
[V:3] D,8 | 
[V:1] E4E4 | 
[V:2] G6FE | 
[V:3] z4C,4 | 
[V:1] F4A4 | 
[V:2] D8 | 
[V:3] D,4F,4 | 
[V:1] G6FE | 
[V:2] z4C4 | 
[V:3] E,4G,4 | 
[V:1] D8 | 
[V:2] D6F2- | 
[V:3] F,6D,2- | 
[V:1] z4C4 | 
[V:2] F2G2A4 | 
[V:3] D,2C,B,,A,,4 | 
[V:1] D6F2- | 
[V:2] D4F3G | 
[V:3] z2D,4A,2- | 
[V:1] F2G2A4 | 
[V:2] A2B2c2d2- | 
[V:3] A,2G,2F,2D,2 | 
[V:1] D4F3G | 
[V:2] d2cBA2d2- | 
[V:3] F,2G,2D,4- | 
[V:1] A2B2c2d2- | 
[V:2] dcd2e2f2 | 
[V:3] D,4z2D,2- | 
[V:1] d2cBA2B2- | 
[V:2] d2e2c2d2- | 
[V:3] D,2A,4G,2- | 
[V:1] BAA4^G2 | 
[V:2] d2A2B4 | 
[V:3] G,2F,2E,4 | 
[V:1] A8 | 
[V:2] A8 | 
[V:3] z4A,,4 | 
[V:1] D4z4 | 
[V:2] z4A4 | 
[V:3] B,,4C,2D,2- | 
[V:1] z8 | 
[V:2] B4c2d2- | 
[V:3] D,2C,B,,A,,2D,2- | 
[V:1] D4E4 | 
[V:2] d2cBA2c2 | 
[V:3] D,4A,4 | 
[V:1] F2G4FE | 
[V:2] d2e4dc | 
[V:3] D,2C,3D,E,F, | 
[V:1] D2F2G2A2- | 
[V:2] B2d2e2f2- | 
[V:3] G,2F,2E,2D,2- | 
[V:1] A2GFE4 | 
[V:2] f2edc4 | 
[V:3] D,E,F,G,A,4 | 
[V:1] D4C4- | 
[V:2] d2D2E2F2- | 
[V:3] D,2F,2G,2A,2- | 
[V:1] C2D2E4 | 
[V:2] F2EDC4 | 
[V:3] A,2G,F,G,4 | 
[V:1] F3ED4- | 
[V:2] D4F4 | 
[V:3] F,3G,A,4 | 
[V:1] D4^C4 | 
[V:2] E8 | 
[V:3] A,,8 | 
[V:1] !fermata!D8 | 
[V:2] !fermata!D8 | 
[V:3] !fermata!A,8 | 
[V:1] z8 | 
[V:2] z8 | 
[V:3] F,6E,D, | 
[V:1] z8 | 
[V:2] z8 | 
[V:3] E,4E,4 | 
[V:1] z8 | 
[V:2] F6ED | 
[V:3] D,4z2D2- | 
[V:1] z8 | 
[V:2] E4E4 | 
[V:3] D2^CB,C4 | 
[V:1] F6ED | 
[V:2] D4A4 | 
[V:3] D4D,2F,2 | 
[V:1] E4E4 | 
[V:2] G4c4 | 
[V:3] E,2C,3D,E,F, | 
[V:1] D4A4 | 
[V:2] B2d3cBA | 
[V:3] G,3F,D,2F,2 | 
[V:1] G4c4 | 
[V:2] B4A4 | 
[V:3] E,4A,,2A,2 | 
[V:1] B2d3cBA | 
[V:2] z4d4- | 
[V:3] G,2_B,3A,G,F, | 
[V:1] B4A4- | 
[V:2] d4c4 | 
[V:3] G,4A,4 | 
[V:1] A4d4- | 
[V:2] d4f4 | 
[V:3] D,8 | 
[V:1] d4^c4 | 
[V:2] e8 | 
[V:3] A,8 | 
[V:1] d4z2A2 | 
[V:2] z2d4c2 | 
[V:3] _B,3A,F,2A,2 | 
[V:1] B2c2G4 | 
[V:2] d2A2B2c2 | 
[V:3] G,2F,2E,2C,2 | 
[V:1] z2G2A2_B2 | 
[V:2] G3FD4 | 
[V:3] E,2G,2F,3E, | 
[V:1] F4z2F2 | 
[V:2] z2F2G2A2 | 
[V:3] D,4E,2D,2 | 
[V:1] G2A2E4 | 
[V:2] E4z2E2 | 
[V:3] C,2A,,2C,4 | 
[V:1] z2E2F2G2 | 
[V:2] F2G2D2G2- | 
[V:3] D,2C,2F,2E,2 | 
[V:1] D4z2F2 | 
[V:2] GABcd2A2 | 
[V:3] G,3F,D,E,F,G, | 
[V:1] E2A4^G2 | 
[V:2] c2d2B4 | 
[V:3] A,2D,2E,4 | 
[V:1] A4B2c2 | 
[V:2] A2d4c2 | 
[V:3] F,4G,2A,2- | 
[V:1] A2d4G2 | 
[V:2] f4d2e2 | 
[V:3] A,2F,2G,2E,2 | 
[V:1] A2F2_B4 | 
[V:2] c2d4G2 | 
[V:3] F,2D,2G,4 | 
[V:1] F2G2E2A2- | 
[V:2] A2G2c4 | 
[V:3] D,2E,2C,2F,2- | 
[V:1] A2E2F2D2 | 
[V:2] F2G2F2_B2- | 
[V:3] F,2C,2D,2G,2- | 
[V:1] G4F2E2- | 
[V:2] B2A4G2 | 
[V:3] G,2C,2D,2E,2 | 
[V:1] EDD4^C2 | 
[V:2] A2F2E4 | 
[V:3] A,,2D,2A,,4 | 
[V:1] D8 |]  
[V:2] D8 |]  
[V:3] A,8 |]  



